assets/images/globus.svg

<svg width="31" height="31" viewBox="0 0 31 31" fill="none" xmlns="http://www.w3.org/2000/svg">
<path d="M15.4999 0.649902C7.3159 0.649902 0.649902 7.3159 0.649902 15.4999C0.649902 23.6839 7.3159 30.3499 15.4999 30.3499C23.6839 30.3499 30.3499 23.6839 30.3499 15.4999C30.3499 7.3159 23.6839 0.649902 15.4999 0.649902ZM22.8589 14.0149C22.7269 10.3849 22.0009 7.2499 20.8129 4.9069C24.2779 6.6559 26.7529 10.0219 27.2479 14.0149H22.8589ZM10.1539 4.9069C8.9989 7.2499 8.2399 10.3849 8.1079 14.0149H3.7189C4.2469 10.0219 6.7219 6.6559 10.1539 4.9069ZM8.1409 16.9849C8.3389 20.7139 9.1969 23.9479 10.5499 26.2579C6.8869 24.6079 4.2799 21.1099 3.7189 16.9849H8.1409ZM15.4999 26.8849C13.8169 26.8849 11.4739 23.1559 11.1109 16.9849H19.8889C19.4929 23.1889 17.1829 26.8849 15.4999 26.8849ZM11.0779 14.0149C11.3419 7.5469 13.7509 3.6199 15.4999 3.6199C17.2489 3.6199 19.6249 7.5469 19.9219 14.0149H11.0779ZM20.4499 26.2579C21.7699 23.9479 22.6609 20.7139 22.8259 16.9849H27.2479C26.7199 21.1099 24.0799 24.6079 20.4499 26.2579Z" fill="#6F00E2"/>
</svg>

<svg width="31" height="31" fill="none" xmlns="http://www.w3.org/2000/svg"><path d="M15.5.65C7.316.65.65 7.316.65 15.5S7.316 30.35 15.5 30.35s14.85-6.666 14.85-14.85S23.684.65 15.5.65zm7.359 13.365c-.132-3.63-.858-6.765-2.046-9.108 3.465 1.749 5.94 5.115 6.435 9.108h-4.39zM10.154 4.907C8.999 7.25 8.24 10.385 8.108 14.015h-4.39a11.992 11.992 0 016.436-9.108zM8.14 16.985c.198 3.729 1.056 6.963 2.409 9.273-3.663-1.65-6.27-5.148-6.831-9.273H8.14zm7.359 9.9c-1.683 0-4.026-3.73-4.39-9.9h8.779c-.396 6.204-2.706 9.9-4.39 9.9zm-4.422-12.87C11.342 7.547 13.75 3.62 15.5 3.62c1.749 0 4.125 3.927 4.422 10.395h-8.844zm9.372 12.243c1.32-2.31 2.21-5.544 2.376-9.273h4.422c-.528 4.125-3.168 7.623-6.798 9.273z" fill="#6F00E2"/></svg>
